packages/calcite-ui-icons/icons/multi-timeline-32.svg

<?xml version="1.0" encoding="UTF-8"?><svg id="icons" xmlns="http://www.w3.org/2000/svg" viewBox="0 0 32 32"><defs><style>.cls-1{fill:none;}</style></defs><path d="M30,18v-1H12v-2.05054c1.13995-.23224,2-1.24182,2-2.44946s-.86005-2.21722-2-2.44946v-2.05054h3.82533c.02264-.33923.05957-.67456.12634-1H6.94946c-.23224-1.13995-1.24182-2-2.44946-2-1.37891,0-2.5,1.12109-2.5,2.5s1.12109,2.5,2.5,2.5c1.20764,0,2.21722-.86005,2.44946-2h4.05054v2.05054c-1.13995.23224-1.98999,1.24182-1.98999,2.44946s.85004,2.21722,1.98999,2.44946v2.05054h-4.05054c-.23224-1.13995-1.24182-2-2.44946-2-1.37891,0-2.5,1.12109-2.5,2.5s1.12109,2.5,2.5,2.5c1.20764,0,2.21722-.86005,2.44946-2h11.05054v2.05054c-1.13995.23224-1.98999,1.24182-1.98999,2.44946s.85004,2.21722,1.98999,2.44946v2.05054H6.94946c-.23224-1.13995-1.24182-2-2.44946-2-1.37891,0-2.5,1.12109-2.5,2.5s1.12109,2.5,2.5,2.5c1.20764,0,2.21722-.86005,2.44946-2h23.05054v-1h-11v-2.05054c1.13995-.23224,2-1.24182,2-2.44946s-.86005-2.21722-2-2.44946v-2.05054h11ZM6,8c0,.55225-.44769,1-1,1h-1c-.55231,0-1-.44775-1-1v-1c0-.55231.44769-1,1-1h1c.55231,0,1,.44769,1,1v1ZM6,18c0,.55225-.44769,1-1,1h-1c-.55231,0-1-.44775-1-1v-1c0-.55231.44769-1,1-1h1c.55231,0,1,.44769,1,1v1ZM6,28c0,.55225-.44769,1-1,1h-1c-.55231,0-1-.44775-1-1v-1c0-.55231.44769-1,1-1h1c.55231,0,1,.44769,1,1v1ZM23.45001,14.95001c3.56219,0,6.45001-2.88782,6.45001-6.45001s-2.88782-6.45001-6.45001-6.45001-6.45001,2.88776-6.45001,6.45001,2.88776,6.45001,6.45001,6.45001ZM23.5,3c3.0329,0,5.5,2.4671,5.5,5.5s-2.4671,5.5-5.5,5.5-5.5-2.46716-5.5-5.5,2.4671-5.5,5.5-5.5ZM24,9h-1v-5h1v4h3v1h-3Z"/><rect class="cls-1" width="32" height="32"/></svg>

<svg xmlns="http://www.w3.org/2000/svg" viewBox="0 0 32 32"><path d="M30 18v-1H12v-2.05c1.14-.233 2-1.242 2-2.45s-.86-2.217-2-2.45V8h3.825c.023-.34.06-.675.127-1H6.949A2.503 2.503 0 0 0 4.5 5C3.121 5 2 6.121 2 7.5S3.121 10 4.5 10c1.208 0 2.217-.86 2.45-2H11v2.05c-1.14.233-1.99 1.242-1.99 2.45s.85 2.217 1.99 2.45V17H6.95a2.503 2.503 0 0 0-2.45-2C3.121 15 2 16.121 2 17.5S3.121 20 4.5 20c1.208 0 2.217-.86 2.45-2H18v2.05c-1.14.233-1.99 1.242-1.99 2.45s.85 2.217 1.99 2.45V27H6.95a2.503 2.503 0 0 0-2.45-2C3.121 25 2 26.121 2 27.5S3.121 30 4.5 30c1.208 0 2.217-.86 2.45-2H30v-1H19v-2.05c1.14-.233 2-1.242 2-2.45s-.86-2.217-2-2.45V18h11zM6 8a1 1 0 0 1-1 1H4a1 1 0 0 1-1-1V7a1 1 0 0 1 1-1h1a1 1 0 0 1 1 1v1zm0 10a1 1 0 0 1-1 1H4a1 1 0 0 1-1-1v-1a1 1 0 0 1 1-1h1a1 1 0 0 1 1 1v1zm0 10a1 1 0 0 1-1 1H4a1 1 0 0 1-1-1v-1a1 1 0 0 1 1-1h1a1 1 0 0 1 1 1v1zm17.45-13.05a6.45 6.45 0 1 0 0-12.9 6.45 6.45 0 0 0 0 12.9zM23.5 3C26.533 3 29 5.467 29 8.5S26.533 14 23.5 14 18 11.533 18 8.5 20.467 3 23.5 3zm.5 6h-1V4h1v4h3v1h-3z"/><path fill="none" d="M0 0h32v32H0z"/></svg>
